X: 1
T:Betty Pringle's Pig -- Reel
M:2/4
L:1/16
C:Niel Gow
R:reel
B:Ryan's Mammoth Collection
N:254
Z:Contributed by Ray Davies,  ray:davies99.freeserve.co.uk
K:F
u(fd)|:\
cFdF cFAd | cFdA GABd | cFdF cFAc | defg agfd |
cFdF cFAd | cFdA GABd | cFdF cFAc | defg (af).f2 :|
|:vagfe fcAc | dfcA (AG).G2 | agfe fcAc | dfeg .f2(fg) |
agfe fcAc | dfcA AGGB | AFcF dFcF | dfeg f2z2 :|
